symbols/web/edit/materialsymbolsrounded/edit_wght600gradN25fill1_48px.svg

<svg xmlns="http://www.w3.org/2000/svg" height="48" width="48"><path d="m39.6 14.85-6.25-6.3L35.3 6.6q.9-.9 2.2-.875 1.3.025 2.3.975l1.8 1.75q.95.95.875 2.275Q42.4 12.05 41.5 12.9ZM8.05 42.05q-.85 0-1.375-.55t-.525-1.35V36.6q0-.4.125-.75t.425-.6l24.7-24.7 6.25 6.2-24.7 24.7q-.3.3-.65.45-.35.15-.7.15Z"/></svg>

<svg xmlns="http://www.w3.org/2000/svg" height="48" width="48"><path d="M39.6 14.85 33.35 8.55 35.3 6.6Q36.2 5.7 37.5 5.725Q38.8 5.75 39.8 6.7L41.6 8.45Q42.55 9.4 42.475 10.725Q42.4 12.05 41.5 12.9ZM8.05 42.05Q7.2 42.05 6.675 41.5Q6.15 40.95 6.15 40.15V36.6Q6.15 36.2 6.275 35.85Q6.4 35.5 6.7 35.25L31.4 10.55L37.65 16.75L12.95 41.45Q12.65 41.75 12.3 41.9Q11.95 42.05 11.6 42.05Z"/></svg>
